X:1
T:向往
M:2/4
L:1/8
V:1
Q:1/4=80
K:C
|Ec2c-c4|Ec2B-B4|AA-A2G2BB|c2E6|
w: 我 知 道|并 不 是|所 有 鸟 儿 都|飞 翔|
|Ec2c-c4|dB2B-B4|AAAAG2BB-|BA-A6|
w: 当 夏 天|过 去 后|还 有 鲜 花 未 曾 开|放|
|cd2e-e4|dB2c-c4|Ac-c2d2eG-|GE-E6|
w: 我 害 怕|看 到 你|独 自 一 人 绝|望|
|cd2e-e4|ecBc-c4|ccccG2cd-|dd-d2zede|
w: 更 害 怕|看 不 到 你|不 能 和 你 一 起 迷|惘 多 想 你|
|cdBczGed|cdBczAed|cdBcBcBG-|G4zecc|
w: 在 我 身 旁 看 命 运|变 幻 无 常 体 会 这|默 默 忍 耐 的 力 量|当 春 风|
|cdBczGed|cddczAed|cdcdcded-|d6Bc|
w: 掠 过 山 岗 依 然 能|感 觉 寒 冷 却 无 法|阻 止 对 温 暖 的 向 往|啊|
|c8-|c8|
w: 啊|